lib/brands/icons/yandex-kassa.svg

<svg xmlns="http://www.w3.org/2000/svg" fill="none" aria-hidden="true" viewBox="0 0 48 48"><g id="yandex_kassa-Icon"><ellipse id="vector" cx="37.3617" cy="24.01" fill="#28EDBD" rx="6.1381" ry="6.12461"/><path id="vector_2" fill="#0D59AF" d="M11.4543 11.9993L16.7155 6.74963C15.4321 8.0796 14.5632 9.92767 14.5632 11.9198C14.5632 13.6934 15.142 15.654 16.4303 16.9308L34.0736 34.4164L21.9635 46.5L8.09561 32.6626C3.29584 27.8734 3.3023 20.1065 8.11001 15.3252L11.4543 11.9993Z"/><path id="vector_3" fill="#1374EC" d="M34.1005 13.5835L21.9903 1.5L16.5364 6.94192C15.3521 8.25488 14.5635 10.022 14.5635 11.9198C14.5635 13.6934 15.1422 15.654 16.4306 16.9308L23.6124 24.0485L34.1005 13.5835Z"/></g></svg>

<svg xmlns="http://www.w3.org/2000/svg" fill="none" aria-hidden="true" viewBox="0 0 48 48"><ellipse cx="37.362" cy="24.01" fill="#28EDBD" rx="6.138" ry="6.125"/><path fill="#0D59AF" d="m11.454 12 5.261-5.25c-1.283 1.33-2.152 3.178-2.152 5.17 0 1.773.579 3.734 1.867 5.01l17.644 17.486L21.964 46.5 8.095 32.663c-4.8-4.79-4.794-12.556.014-17.338L11.454 12Z"/><path fill="#1374EC" d="M34.1 13.584 21.99 1.5l-5.454 5.442c-1.184 1.313-1.973 3.08-1.973 4.978 0 1.773.579 3.734 1.867 5.01l7.182 7.119L34.1 13.584Z"/></svg>
